X:1
T:Bal Keff
C:trad. rgion de Landerneau, Bretagne, fichier ABC par Bernard Loffet
L:1/8
Q:286
M:6/8
K:G
 z4 zD | [G2G,,2]G [G2G,2][AD,] | [B2E,,2]B [B2E,2][cE,] | [d2C,,2]e [d2C,2][BC,] | \
 [A3D,,3] [G2G,,2]D | [G2G,,2]G [G2G,2][AD,] | [B2E,,2]B [B2E,2][cE,] | [d2C,,2]e [d2C,2][BC,] | \
 [A3D,,3] [G3G,,3] | \
M:3/4
|: [B2G,,2] [AD,]G [FD,]G | [A2D,,2] [A/D,/]B/c [B3/2D,3/2]A/ | \
M:2/4
 [BC,,]c [d2D,2] | \
M:3/4
 [B2G,,2] [AD,]G [FD,]G | [A2D,,2] [A/D,/]B/c [B3/2D,3/2]A/ | \
M:2/4
 [G2G,,2] [G2G,2] :| \
W:Created with TablEdit http://www.tabledit.com/ by Bernard Loffet
